!!!COM: Ernest Chausson
!!!CNT: Francais
!!!TXO: Francais
!!!OTL: Le Charme
!!!OPS: Op. 2
!!!ONM: No. 2
!!!LYR: Armand Silvestre
!!!ENC: Jacob Pegg
!!!YOR: 20 Songs for Voice and Piano, International Music Company, New York City, January, 1952
!!!ODT: 1879/
!!NB: Vocal melody and text only encoded.
**kern	**silbe
*clef G2	*
*k[b-e-a-]	*
*M4/4	*
=1	=1
{4b-	{Quand
8a-	ton
8a-	sou-
4g	-ri-
4f	-re
=2	=2
4.e-	me
8d	sur-
4d	-prit,
8d	Je
8d	sen-
=3	=3
8e-	-tis
8e-	fre/-
2a-	-mir
8g	tout
8f	non
=4	=4
2f	e^-
4g}	-tre,}
4r	.
=5	=5
{8g	{Mais
8g	ce
8an	qui
8an	domp-
4b-	-tait
8f	mon
8f	es-
=6	=6
*M2/4	*
2f	-prit,
=7	=7
*M4/4	*
8f	Je
8f	ne
8g	pus
8g	d'a-
4a-	-bord
8e-	le
8e-	con-
=8	=8
*M2/4	*
4e-	-nai^-
8e-}	-tre.}
8r	.
=9	=9
*M4/4	*
{4cc	{Quand
8b-	ton
8b-	re-
4a-	-gard
4g	tom-
=10	=10
4.b-	-ba
8a-	sur
4a-	moi,
8a-	Je
8a-	sen-
=11	=11
4g	-tis
4f	mon
4e-	a^-
8e-	-me
8d	se
=12	=12
2f	fon-
4e-}	-dre,}
4r	.
=13	=13
{8en	{Mais
8en	ce
8f	que
8f	ser-
4b-	-ait
8b-	cet
8a-	e/-
=14	=14
*M2/4	*
2a-	-moi,
=15	=15
*M4/4	*
8an	Je
8an	ne
8b-	pus
8b-	d'a-
4b-	-bord
8ee-	en
8dd	re/-
=16	=16
*M2/4	*
4dd	-pon-
8dd}	-dre.}
8r	.
=17	=17
*M4/4	*
{4b-	{Ce
4a-	qui
4g	me
4f	vain-
=18	=18
4e-	-quit
8e-	a\
8d	jam-
4d	-ais,
4d	Ce
=19	=19
4.e-	fut
8e-	un
8a-	plus
8a-	dou-
8g	-lou-
8f	-reux
=20	=20
4f	char-
4g}	-me;}
2r	.
=22	=22
4r	.
{4b-	{Et
4a-	je
4g	n'ai
=23	=23
4g	su
4f	que
4f	je
4e-	t'ai-
=24	=24
(2e-	-mais
4d)}	|}
4r	.
=25	=25
{2.e-	{Qu'en
4e-	voy-
=26	=26
1e-	-ant
=27	=27
4c-	ta
4c-	pre-
4d-	-mie\-
4c-	-re
=28	=28
2b-	lar-
4b-}	-me}
4r	.
*-	*-
